!!!COA:	Josquin des Prez
!!!CDT:	~1450-1521/08/27
!!!COM: Brunet
!!!OTL@@LAT: Victime paschali laudes
!!!OLT2@@LAT: Sepulcrum Christi viventis
!!!AGN:	Motet
!!!SCT:	NJE 22.7
!!!SCA:	New Josquin Edition 22.7
!!!voices:	6
**kern	**kern	**kern	**kern	**kern	**kern
*staff6	*staff5	*staff4	*staff3	*staff2	*staff1
*Ivox	*Ivox	*Ivox	*Ivox	*Ivox	*Ivox
*I"Bassus2	*I"Bassus1	*I"Tenor	*I"Altus2	*I"Altus1	*I"Superius
*I'B2	*I'B1	*I'T	*I'A2	*I'A1	*I'S
*>[A,B]	*>[A,B]	*>[A,B]	*>[A,B]	*>[A,B]	*>[A,B]
*>Part1[A]	*>Part1[A]	*>Part1[A]	*>Part1[A]	*>Part1[A]	*>Part1[A]
*>Part2[B]	*>Part2[B]	*>Part2[B]	*>Part2[B]	*>Part2[B]	*>Part2[B]
*clefF4	*clefF4	*clefGv2	*clefGv2	*clefGv2	*clefG2
*>A	*>A	*>A	*>A	*>A	*>A
*k[b-]	*k[b-]	*k[b-]	*k[b-]	*k[b-]	*k[b-]
*M2/1	*M2/1	*M2/1	*M2/1	*M2/1	*M2/1
*met(C|)	*met(C|)	*met(C|)	*met(C|)	*met(C|)	*met(C|)
=1-	=1-	=1-	=1-	=1-	=1-
1r	1.GG	[0G	0r	0r	0r
[1GG	.	.	.	.	.
.	2AA/	.	.	.	.
=2	=2	=2	=2	=2	=2
2GG/]	2BB-/	1G]	0r	0r	0r
2AA/	2C/	.	.	.	.
2.BB-/	[1D	[1F	.	.	.
4C/	.	.	.	.	.
=3	=3	=3	=3	=3	=3
1.D	2D\]	0F]	0r	0r	0r
.	2.BB-/	.	.	.	.
.	4C/	.	.	.	.
[2BB-/	2D\	.	.	.	.
=4	=4	=4	=4	=4	=4
4BB-/]	1GG	1.G	0r	0r	0r
4C/	.	.	.	.	.
2D\	.	.	.	.	.
[1GG	1r	.	.	.	.
.	.	[2D/	.	.	.
=5	=5	=5	=5	=5	=5
1GG]	1.D	2D/]	0r	[0d	0r
.	.	2E/	.	.	.
2r	.	2F/	.	.	.
[2D\	2E\	2G/	.	.	.
=6	=6	=6	=6	=6	=6
2D\]	2F\	1A	0r	0d]	0r
2E\	2G\	.	.	.	.
2.F\	[1A	1D	.	.	.
4G\	.	.	.	.	.
=7	=7	=7	=7	=7	=7
1A	2A\]	0r	0r	0c	0r
.	2.F\	.	.	.	.
2.F\	.	.	.	.	.
.	4G\	.	.	.	.
.	2A\	.	.	.	.
4G\	.	.	.	.	.
=8	=8	=8	=8	=8	=8
2A\	1D	0r	0r	0d	0r
1D	.	.	.	.	.
.	1r	.	.	.	.
2r	.	.	.	.	.
=9	=9	=9	=9	=9	=9
0r	0r	2r	1r	2.G/	[0g
.	.	1G	.	.	.
.	.	.	.	4A/	.
.	.	.	[1G	2B-\	.
.	.	2A/	.	2c\	.
=10	=10	=10	=10	=10	=10
0r	0r	2B-\	2G/]	1d	0g]
.	.	2c\	2A/	.	.
.	.	[1d	2B-\	1G	.
.	.	.	2c\	.	.
=11	=11	=11	=11	=11	=11
0r	0r	2d\]	1.d	0r	0f
.	.	2.B-\	.	.	.
.	.	4c\	.	.	.
.	.	2d\	[2B-\	.	.
=12	=12	=12	=12	=12	=12
2r	1r	2G/	4B-\]	0r	0g
.	.	.	4c\	.	.
2.GG/	.	2.B-\	2d\	.	.
.	2r	.	1G	.	.
4AA/	.	4A/	.	.	.
4BB-/	[2GG/	[2G/	.	.	.
4C/	.	.	.	.	.
=13	=13	=13	=13	=13	=13
4D\	4GG/]	2G/]	0r	0B-	0r
4C/	4AA/	.	.	.	.
4D\	4BB-/	4F/	.	.	.
4E\	4C/	4E/	.	.	.
4F\	2D\	2D/	.	.	.
8E\L	.	.	.	.	.
8F\J	.	.	.	.	.
[2G\	2GG/	2E/	.	.	.
=14	=14	=14	=14	=14	=14
2G\]	1AA	1C	0r	1c	0r
2F\	.	.	.	.	.
2G\	2GG/	1D	.	1B-	.
2GG/	4D\	.	.	.	.
.	4E\	.	.	.	.
=15	=15	=15	=15	=15	=15
2AA/	4F\	0r	0r	2A/	0r
.	8E\L	.	.	.	.
.	8F\J	.	.	.	.
2BB-/	1G	.	.	2G/	.
2C/	.	.	.	1A	.
2D\	2F\	.	.	.	.
=16	=16	=16	=16	=16	=16
2E\	1G	2r	0r	1G	0b-
2F\	.	2.B-\	.	.	.
2G\	1GG	.	.	2r	.
.	.	4A/	.	.	.
2B-\	.	[2G/	.	[2d\	.
=17	=17	=17	=17	=17	=17
1A	0r	2G/]	2r	4d\]	1cc
.	.	.	.	4e\	.
.	.	2F/	2A/	2f\	.
1G	.	1G	4B-\	2e\	1b-
.	.	.	4c\	.	.
.	.	.	4d\	[2d\	.
.	.	.	4e\	.	.
=18	=18	=18	=18	=18	=18
0r	0r	2F/	2f\	2d\]	2a/
.	.	2E/	2.g\	2c\	2g/
.	.	1D	.	[1d	1a
.	.	.	8f#i\L	.	.
.	.	.	8e\J	.	.
.	.	.	2f#i\	.	.
=19	=19	=19	=19	=19	=19
2r	2.GG/	2r	2.g\	1d]	1g
1G	.	1B-	.	.	.
.	4AA/	.	4f\	.	.
.	4BB-/	.	2d\	2r	1r
.	4C/	.	.	.	.
2F\	4D\	2A/	[2f\	[2d\	.
.	4E\	.	.	.	.
=20	=20	=20	=20	=20	=20
2D\	4F\	2.F/	2f\]	2d\]	0r
.	4G\	.	.	.	.
1F	2.A\	.	4e\	2c\	.
.	.	4E/	4d\	.	.
.	.	2F/	1c	2A/	.
.	4G\	.	.	.	.
2E\	[2G\	2G/	.	[2c\	.
=21	=21	=21	=21	=21	=21
1D	2G\]	2A/	1d	2c\]	0r
.	2F\	2B-\	.	2B-\	.
2C/	2E\	2c\	1r	2G/	.
2BB-/	2D\	2d\	.	[2B-\	.
=22	=22	=22	=22	=22	=22
1C	1E	2G/	0r	4B-\]	0r
.	.	.	.	4A/	.
.	.	2c\	.	2.A/	.
2BB-/	1D	2.d\	.	.	.
.	.	.	.	4G/	.
2GG/	.	.	.	[2G/	.
.	.	4e\	.	.	.
=23	=23	=23	=23	=23	=23
1AA	1r	4f\	1r	2G/]	0r
.	.	4e\	.	.	.
.	.	4d\	.	2F#i/	.
.	.	4c\	.	.	.
1GG	2r	2.B-\	2.g\	1G	.
.	2G\	.	.	.	.
.	.	4G/	4f\	.	.
=24	=24	=24	=24	=24	=24
1D	2G\	2B-\	2d\	0r	2r
.	2F\	2A/	1f	.	1dd
2r	2D\	2F/	.	.	.
[2A\	[2F\	[2c\	4e\	.	2cc\
.	.	.	4d\	.	.
=25	=25	=25	=25	=25	=25
2A\]	2F\]	4c\]	2c\	0r	2a/
.	.	4B-\	.	.	.
2G\	2E\	2G/	1e	.	1cc
2E\	2C/	1r	.	.	.
[2G\	[2E\	.	4d\	.	2b-\
.	.	.	4c\	.	.
=26	=26	=26	=26	=26	=26
2G\]	2E\]	0r	3.B-\V	2r	2g/
2F\	2D\	.	6c\	1d	2.b-\
.	.	.	3d\Z	.	.
2D\	2BB-/	.	2G/	.	.
.	.	.	.	.	4a/
2E-i\	2C/	.	[2e-i\	[2c\	[2a/
=27	=27	=27	=27	=27	=27
1C	1E-i	2r	2e-\]	4c\]	4a/]
.	.	.	.	4B-\	4g/
.	.	2G/	2c\	4A/	1g
.	.	.	.	4G/	.
2.F\	1D	2.d\	1d	1A	.
.	.	.	.	.	2f#i/
4D\	.	4c\	.	.	.
=28	=28	=28	=28	=28	=28
1D	0GG	4B-\	[0d	0G	0g
.	.	4A/	.	.	.
.	.	1B-	.	.	.
2r	.	.	.	.	.
2D\	.	4A/	.	.	.
.	.	4G/	.	.	.
=29	=29	=29	=29	=29	=29
1F	2r	1A	1d]	0r	0r
.	2D\	.	.	.	.
1G	4E\	4G/	1r	.	.
.	4F\	4A/	.	.	.
.	4G\	4B-\	.	.	.
.	4E\	4G/	.	.	.
=30	=30	=30	=30	=30	=30
2D\	2F\	2A/	0r	0d	0r
2.B-\	2G\	2G/	.	.	.
.	4GG/	1B-	.	.	.
4A\	4AA/	.	.	.	.
2G\	4BB-/	.	.	.	.
.	4C/	.	.	.	.
=31	=31	=31	=31	=31	=31
2F\	4D\	1A	0r	1f	0r
.	4E\	.	.	.	.
2D\	2F\	.	.	.	.
2E\	2C/	1G	.	1g	.
[2G\	[2E\	.	.	.	.
=32	=32	=32	=32	=32	=32
2G\]	4E\]	2r	0r	0d	0r
.	4D\	.	.	.	.
2F\	2.D\	1A	.	.	.
4G\	.	.	.	.	.
4F\	4C/	.	.	.	.
4E\	2BB-/	2G/	.	.	.
4D\	.	.	.	.	.
=33	=33	=33	=33	=33	=33
1E	1AA	2.A/	0r	1c	0r
.	.	4G/	.	.	.
2D\	[1D	2F/	.	1d	.
[2A\	.	2E/	.	.	.
=34	=34	=34	=34	=34	=34
2A\]	2D\]	1D	1r	0d	0r
2G\	2GG/	.	.	.	.
2.A\	1D	2.F/	2r	.	.
.	.	.	[2d\	.	.
4G\	.	4G/	.	.	.
=35	=35	=35	=35	=35	=35
2F\	1AA	2.A/	2d\]	1r	0r
2E\	.	.	2c\	.	.
.	.	4G/	.	.	.
2D\	1r	4F/	2.d\	2r	.
.	.	4E/	.	.	.
4GG/	.	2G/	.	[2g\	.
4AA/	.	.	4c\	.	.
=36	=36	=36	=36	=36	=36
4BB-/	0r	0D	2B-\	2g\]	0r
4C/	.	.	.	.	.
2D\	.	.	2A/	2f\	.
[1GG	.	.	2G/	2g\	.
.	.	.	[2B-\	4G/	.
.	.	.	.	4A/	.
=37	=37	=37	=37	=37	=37
1GG]	0r	0r	2B-\]	4B-\	1dd
.	.	.	.	4c\	.
.	.	.	4A/	4d\	.
.	.	.	4G/	4e\	.
1r	.	.	1A	4f\	1cc
.	.	.	.	4e\	.
.	.	.	.	4d\	.
.	.	.	.	4c\	.
=38	=38	=38	=38	=38	=38
0r	0r	0r	4G/	4B-\	1.dd
.	.	.	4A/	4c\	.
.	.	.	4B-\	4d\	.
.	.	.	4c\	4e\	.
.	.	.	4d\	4f\	.
.	.	.	4e\	4g\	.
.	.	.	4f\	[2a\	2cc\
.	.	.	8e\L	.	.
.	.	.	8f\J	.	.
=39	=39	=39	=39	=39	=39
0r	0r	1r	2.g\	4a\]	1b-
.	.	.	.	4g\	.
.	.	.	.	1g	.
.	.	.	4f\	.	.
.	.	2r	4d\	.	1a
.	.	.	4e\	.	.
.	.	2F/	4f\	2f\	.
.	.	.	4d\	.	.
=40	=40	=40	=40	=40	=40
2r	0r	1.c	2e\	2g\	0g
2C/	.	.	4c\	2c\	.
.	.	.	4d\	.	.
2C/	.	.	4e\	2.g\	.
.	.	.	4f\	.	.
2C/	.	2G/	2g\	.	.
.	.	.	.	4f\	.
=41	=41	=41	=41	=41	=41
2.AA/	0r	1A	2c\	4e\	1r
.	.	.	.	4d\	.
.	.	.	1f	2.c\	.
4BB-/	.	.	.	.	.
1C	.	1G	.	.	2r
.	.	.	.	4B-\	.
.	.	.	2e\	2G/	2g/
=42	=42	=42	=42	=42	=42
1FF	2r	1F	2f\	0c	2a/
.	2C/	.	4F/	.	2.cc\
.	.	.	4G/	.	.
1r	2C/	1r	4A/	.	.
.	.	.	4B-\	.	4b-\
.	2C/	.	2c\	.	2g/
=43	=43	=43	=43	=43	=43
1r	1G	0r	2B-\	2r	1b-
.	.	.	2G/	2G/	.
2r	2F\	.	2A/	1c	2a/
2C/	2E\	.	[2c\	.	[2g/
=44	=44	=44	=44	=44	=44
2F\	1D	0r	2c\]	2A/	4g/]
.	.	.	.	.	4f/
2D\	.	.	2B-\	2F/	1f
2E\	1C	.	1c	1G	.
2C/	.	.	.	.	2e/
=45	=45	=45	=45	=45	=45
1F	0r	2r	2r	1F	1f
.	.	2A/	2c\	.	.
2r	.	2.B-\	2d\	1r	1r
2G\	.	.	2g\	.	.
.	.	4A/	.	.	.
=46	=46	=46	=46	=46	=46
2A\	1r	2F/	2f\	0r	0r
2.B-\	.	1G	2.e-i\	.	.
.	2r	.	.	.	.
4A\	.	.	4d\	.	.
[2A\	2F\	2F/	2d\	.	.
=47	=47	=47	=47	=47	=47
4A\]	2G\	1E	2.B-\	0r	1r
4G\	.	.	.	.	.
1G	2.B-\	.	.	.	.
.	.	.	4c\	.	.
.	.	1D	4d\	.	2r
.	4G\	.	4e-i\	.	.
2F\	[2A\	.	[2d\	.	2f/
=48	=48	=48	=48	=48	=48
2.E\	4A\]	2r	2d\]	2r	2g/
.	4G\	.	.	.	.
.	1G	2G/	2G/	2d\	2.b-\
4D\	.	.	.	.	.
1D	.	2A/	2r	1f	.
.	.	.	.	.	4a/
.	2F\	2d\	2A/	.	[2a/
=49	=49	=49	=49	=49	=49
2G\	1E	4c\	2B-\	1g	4a/]
.	.	4B-\	.	.	4g/
2C/	.	4A/	2c\	.	1g
.	.	4G/	.	.	.
1F	1D	1A	1d	[1d	.
.	.	.	.	.	2f#i/
=50	=50	=50	=50	=50	=50
1D	0GG	0G	0G	0d_	1g
2r	.	.	.	.	2r
2D\	.	.	.	.	[2dd\
=51	=51	=51	=51	=51	=51
1F	0r	2r	1r	0d_	4dd\]
.	.	.	.	.	4cc\
.	.	2d\	.	.	2a/
1G	.	2B-\	1d	.	1b-
.	.	2G/	.	.	.
=52	=52	=52	=52	=52	=52
2D\	1r	2A/	2f\	0d_	2a/
2GG/	.	2.B-\	2g\	.	2.dd\
2.BB-/	1GG	.	2d\	.	.
.	.	4c\	.	.	4cc\
.	.	[2d\	2g\	.	[2b-\
4C/	.	.	.	.	.
=53	=53	=53	=53	=53	=53
1D	1BB-	4d\]	2f\	1d]	4b-\]
.	.	4c\	.	.	4a/
.	.	4B-\	2d\	.	4g/
.	.	4A/	.	.	4f/
1E-i	1C	1G	[1g	1c	1cc
=54	=54	=54	=54	=54	=54
0D	1GG	1.d	2g\]	1d	1b-
.	.	.	4f\	.	.
.	.	.	4e\	.	.
.	2.D\	.	2.f\	1d	2.a/
.	.	4c\	.	.	.
.	4E\	4B-\	4e\	.	4g/
=55	=55	=55	=55	=55	=55
1r	2F\	2A/	4d\	0r	2a/
.	.	.	4c\	.	.
.	2.G\	2G/	2.e\	.	2.b-\
2r	.	1r	.	.	.
.	4F\	.	4d\	.	4g/
[2A\	4E\	.	[2d\	.	4a/
.	4D\	.	.	.	4b-\
=56	=56	=56	=56	=56	=56
2A\]	1E-i	0r	2d\]	0r	4cc\
.	.	.	.	.	4b-\
2G\	.	.	2c#i\	.	4a/
.	.	.	.	.	4g/
1A	1D	.	[1d	.	1f
=57	=57	=57	=57	=57	=57
1G	0r	2r	1d]	1r	2r
.	.	2B-\	.	.	2b-\
2F\	.	2c\	1r	2r	2a/
2D\	.	2d\	.	[2d\	2f/
=58	=58	=58	=58	=58	=58
1E-i	0r	2B-\	0r	2d\]	1g
.	.	2G/	.	2c\	.
[1D	.	2A/	.	2d\	2f/
.	.	[2d\	.	[2f\	4d/
.	.	.	.	.	4e/
=59	=59	=59	=59	=59	=59
1D]	1r	2d\]	0r	4f\]	4f/
.	.	.	.	4e\	4g/
.	.	4c\	.	2d\	4a/
.	.	4B-\	.	.	4b-\
1r	1F	2A/	.	2c\	2cc\
.	.	2F/	.	2d\	[2a/
=60	=60	=60	=60	=60	=60
0r	1G	2.B-\	1r	2B-\	4a/]
.	.	.	.	.	4g/
.	.	.	.	2G/	1g
.	.	4c\	.	.	.
.	1D	1d	2r	1A	.
.	.	.	2d\	.	2f#i/
=61	=61	=61	=61	=61	=61
2r	1E	1r	2d\	1G	1g
1G	.	.	2c\	.	.
.	1D	2r	1d	1r	2r
2F\	.	2B-\	.	.	2d/
=62	=62	=62	=62	=62	=62
2G\	0C	1c	1G	0r	2e/
2.E\	.	.	.	.	2.g/
.	.	1G	2r	.	.
4F\	.	.	.	.	4f/
4G\	.	.	2c\	.	4e/
4E\	.	.	.	.	4d/
=63	=63	=63	=63	=63	=63
2F\	2r	2A/	2A/	0r	2c/
2D\	2D\	2F/	2B-\	.	1f
1C	2E\	1G	1c	.	.
.	2C/	.	.	.	2e/
=64	=64	=64	=64	=64	=64
2r	1D	1F	2r	2r	1f
2F\	.	.	2F/	2A/	.
2G\	2GG/	2r	2B-\	2B-\	1r
2A\	2G\	2G/	2G/	2c\	.
=65	=65	=65	=65	=65	=65
1D	2A\	2F/	[0d	1A	1a
.	2F\	2D/	.	.	.
2r	2G\	1G	.	1G	2b-\
2GG/	4D\	.	.	.	2g/
.	4E\	.	.	.	.
=66	=66	=66	=66	=66	=66
2.D\	4F\	1F	0d]	2r	1a
.	4G\	.	.	.	.
.	2.A\	.	.	1A	.
4E\	.	.	.	.	.
2F\	.	1r	.	.	2d/
.	4G\	.	.	.	.
2G\	[2G\	.	.	2B-\	2b-\
=67	=67	=67	=67	=67	=67
1A	2G\]	0r	2r	2.c\	2a/
.	2F\	.	2f\	.	2.cc\
.	.	.	.	4d\	.
2G\	2G\	.	2e-i\	4e-i\	.
.	.	.	.	4c\	4b-\
2F\	2D\	.	2f\	2d\	[2a/
=68	=68	=68	=68	=68	=68
2G\	2E-i\	1r	2B-\	2B-\	4a/]
.	.	.	.	.	4g/
2E-i\	2C/	.	2e-i\	2c\	1g
1F	1D	2r	1d	1A	.
.	.	2A/	.	.	2f#i/
=69	=69	=69	=69	=69	=69
1D	0GG	2.B-\	[0d	[0G	0g
.	.	4c\	.	.	.
2r	.	2.d\	.	.	.
2GG/	.	.	.	.	.
.	.	4c\	.	.	.
=70	=70	=70	=70	=70	=70
2.BB-/	2r	4B-\	0d_	1G]	0r
.	.	4A/	.	.	.
.	2GG/	1B-	.	.	.
4C/	.	.	.	.	.
2.D\	2.BB-/	.	.	1r	.
.	.	4A/	.	.	.
4E\	4C/	4G/	.	.	.
=71	=71	=71	=71	=71	=71
4F\	2.D\	2.F/	0d]	1r	0r
4G\	.	.	.	.	.
2.A\	.	.	.	.	.
.	4E\	4G/	.	.	.
.	2F\	2A/	.	2r	.
4G\	.	.	.	.	.
[2G\	2G\	2B-\	.	2d\	.
=72	=72	=72	=72	=72	=72
2G\]	1D	1A	0r	1f	0r
2F\	.	.	.	.	.
2E\	2r	[1G	.	1g	.
[2D\	2GG/	.	.	.	.
=73	=73	=73	=73	=73	=73
2D\]	2BB-/	0G_	0r	2d\	0r
2C/	2C/	.	.	2.g\	.
2D\	2GG/	.	.	.	.
.	.	.	.	4f\	.
[2E\	[2C/	.	.	4e\	.
.	.	.	.	4d\	.
=74	=74	=74	=74	=74	=74
2E\]	2C/]	1G]	0r	2c\	0r
2D\	2BB-/	.	.	2d\	.
2E\	2C/	2r	.	2c\	.
[2D\	[2D\	2D/	.	[2f\	.
=75	=75	=75	=75	=75	=75
4D\]	2D\]	2.F/	2r	4f\]	0r
4E\	.	.	.	4e\	.
4F\	4C/	.	2A/	2.d\	.
4D\	4BB-/	4G/	.	.	.
1E	1AA	1A	1c	.	.
.	.	.	.	4c\	.
.	.	.	.	2c\	.
=76	=76	=76	=76	=76	=76
0D	0r	2A/	2d\	2.F/	1d
.	.	2.d\	2.f\	.	.
.	.	.	.	4G/	.
.	.	.	.	2A/	1f
.	.	4c\	4e\	.	.
.	.	2A/	4d\	[2d\	.
.	.	.	4c\	.	.
=77	=77	=77	=77	=77	=77
0r	0r	2B-\	1c	4d\]	2.g/
.	.	.	.	4c\	.
.	.	1G	.	4B-\	.
.	.	.	.	4A/	4a/
.	.	.	2.d\	2G/	2b-\
.	.	2F/	.	2A/	[2a/
.	.	.	4c\	.	.
=78	=78	=78	=78	=78	=78
1r	1r	2G/	2B-\	2B-\	4a/]
.	.	.	.	.	4g/
.	.	2E/	4A/	2c\	1g
.	.	.	4G/	.	.
2r	2r	1D	1A	1d	.
2F\	2D\	.	.	.	2f#i/
=79	=79	=79	=79	=79	=79
1B-	2BB-/	1r	2G/	[0d	1g
.	2GG/	.	2.d\	.	.
1A	1D	2r	.	.	2r
.	.	.	4c\	.	.
.	.	2D/	2A/	.	2f/
=80	=80	=80	=80	=80	=80
1G	1GG	2.D/	1B-	0d]	2b-\
.	.	.	.	.	2g/
.	.	4E/	.	.	.
2r	2r	4F/	1A	.	1a
.	.	4G/	.	.	.
2F\	[2D\	[2A/	.	.	.
=81	=81	=81	=81	=81	=81
2B-\	2D\]	4A/]	0r	0r	0r
.	.	4F/	.	.	.
2G\	2E\	2G/	.	.	.
2A\	2D\	2F/	.	.	.
4D\	[2F\	[2A/	.	.	.
4E\	.	.	.	.	.
=82	=82	=82	=82	=82	=82
4F\	4F\]	4A/]	0r	1r	0r
4G\	4E\	4G/	.	.	.
2.A\	4D\	4F/	.	.	.
.	4C/	4E/	.	.	.
.	2BB-/	2D/	.	2r	.
4G\	.	.	.	.	.
[2G\	2C/	2E/	.	2G/	.
=83	=83	=83	=83	=83	=83
2G\]	1AA	1C	2r	2c\	2r
2F\	.	.	2c\	2A/	2f/
2G\	1GG	2D/	2B-\	1B-	2b-\
2D\	.	2G/	[2d\	.	2g/
=84	=84	=84	=84	=84	=84
2.F\	0D	2F/	2d\]	1A	2a/
.	.	2.A/	4c\	.	4d/
4G\	.	.	4B-\	.	4e/
2A\	.	.	2A/	2.d\	4f/
.	.	4D/	.	.	4g/
2D\	.	[2f\	2f\	.	[2a/
.	.	.	.	4c\	.
=85	=85	=85	=85	=85	=85
1G	1E	2f\]	2.g\	2B-\	4a/]
.	.	.	.	.	4g/
.	.	2e\	.	4A/	1g
.	.	.	4e\	4G/	.
2r	1D	1f	4f\	1A	.
.	.	.	4e\	.	.
2D\	.	.	4d\	.	2f#i/
.	.	.	4c\	.	.
=86	=86	=86	=86	=86	=86
1D	1GG	2r	1B-	[0Gl	[0gl
.	.	2d\	.	.	.
[1E-i	[1C	2.c\	2r	.	.
.	.	.	2e-i\	.	.
.	.	4B-\	.	.	.
=87	=87	=87	=87	=87	=87
2E-\]	2C/]	2G/	2c\	0G_	0g_
2D\	2BB-/	2B-\	1d	.	.
1E-i	1C	2.G/	.	.	.
.	.	.	2c\	.	.
.	.	4A/	.	.	.
=88	=88	=88	=88	=88	=88
0Dl	0GGl	0B-l	1d	0G]	0g]
.	.	.	1dl	.	.
!!LO:LB:i:g=z
=89||	=89||	=89||	=89||	=89||	=89||
*>B	*>B	*>B	*>B	*>B	*>B
!!section: Secunda pars: Sepulcrum Christi viventis
!!!OMD: Secunda pars: Sepulcrum Christi viventis
*M2/1	*M2/1	*M2/1	*M2/1	*M2/1	*M2/1
*met(C|)	*met(C|)	*met(C|)	*met(C|)	*met(C|)	*met(C|)
1r	2.GG/	0r	0r	[0B-	0r
.	4AA/	.	.	.	.
2.GG/	2BB-/	.	.	.	.
.	2C/	.	.	.	.
4AA/	.	.	.	.	.
=90	=90	=90	=90	=90	=90
2BB-/	2D\	0r	0r	0B-]	0r
2C/	2E\	.	.	.	.
2D\	2F\	.	.	.	.
2E\	2G\	.	.	.	.
=91	=91	=91	=91	=91	=91
2F\	2A\	2.D/	0r	0d	0r
2G\	1D	.	.	.	.
.	.	4E/	.	.	.
2A\	.	2F/	.	.	.
2D\	4C/	2G/	.	.	.
.	4BB-/	.	.	.	.
=92	=92	=92	=92	=92	=92
2.F\	2.AA/	2.A/	0r	0c	0r
4G\	4GG/	4B-\	.	.	.
1E	1AA	4c\	.	.	.
.	.	4B-\	.	.	.
.	.	4A/	.	.	.
.	.	4G/	.	.	.
=93	=93	=93	=93	=93	=93
1D	2r	2F/	0r	1d	0r
.	1D	2.B-\	.	.	.
1r	.	.	.	2B-\	.
.	.	4A/	.	.	.
.	2C/	[2A/	.	[2c\	.
=94	=94	=94	=94	=94	=94
1r	1E	4A/]	0r	4c\]	0r
.	.	4G/	.	4B-\	.
.	.	1G	.	4A/	.
.	.	.	.	4G/	.
2r	1D	.	.	1A	.
2D\	.	2F/	.	.	.
=95	=95	=95	=95	=95	=95
2E\	2C/	1G	0r	2r	0r
1G	2BB-/	.	.	2G/	.
.	1AA	1r	.	2A/	.
2F\	.	.	.	[2c\	.
=96	=96	=96	=96	=96	=96
4G\	1GG	0r	0r	2c\]	0r
4F\	.	.	.	.	.
4E\	.	.	.	2B-\	.
4D\	.	.	.	.	.
1E	1r	.	.	1c	.
=97	=97	=97	=97	=97	=97
1D	2r	2r	0r	1.d	0r
.	2GG/	2G/	.	.	.
1r	2D\	2A/	.	.	.
.	2E\	[2c\	.	4c\	.
.	.	.	.	4B-\	.
=98	=98	=98	=98	=98	=98
0r	2F\	2c\]	0r	2A/	0r
.	2G\	2B-\	.	2B-\	.
.	1E	1c	.	1G	.
=99	=99	=99	=99	=99	=99
2r	2D\	1d	0r	1A	0r
2D\	2F\	.	.	.	.
2E\	2G\	1c	.	2r	.
2F\	2A\	.	.	2f\	.
=100	=100	=100	=100	=100	=100
1G	2B-\	1B-	0r	2d\	0r
.	2.G\	.	.	2d\	.
2.C/	.	[1c	.	2.g\	.
.	4F\	.	.	.	.
.	4E\	.	.	.	.
4D\	4D\	.	.	4f\	.
=101	=101	=101	=101	=101	=101
4E\	1C	2c\]	0r	4e\	0r
4F\	.	.	.	4d\	.
1G	.	2B-\	.	2e\	.
.	1D	1A	.	1d	.
2F#i\	.	.	.	.	.
=102	=102	=102	=102	=102	=102
1G	0GG	0G	2r	1d	0d
.	.	.	2G/	.	.
1r	.	.	2.B-\	1r	.
.	.	.	4c\	.	.
=103	=103	=103	=103	=103	=103
0r	0r	2r	2d\	0r	1f
.	.	2F/	2.f\	.	.
.	.	1c	.	.	1g
.	.	.	8e\L	.	.
.	.	.	8d\J	.	.
.	.	.	[2e\	.	.
=104	=104	=104	=104	=104	=104
0r	0r	2G/	4e\]	2r	0b-
.	.	.	4d\	.	.
.	.	1B-	1d	4G/	.
.	.	.	.	4A/	.
.	.	.	.	4B-\	.
.	.	.	.	4c\	.
.	.	4A/	[2g\	[2d\	.
.	.	4G/	.	.	.
=105	=105	=105	=105	=105	=105
0r	0r	1A	2g\]	2d\]	1cc
.	.	.	2f\	2c\	.
.	.	2G/	2g\	1d	2b-\
.	.	2F/	2d\	.	[2a/
=106	=106	=106	=106	=106	=106
1r	0r	1E	2e\	4c\	4a/]
.	.	.	.	4B-\	4g/
.	.	.	2c\	4A/	1g
.	.	.	.	4G/	.
2r	.	2D/	1d	1A	.
2D\	.	2A/	.	.	2f#i/
=107	=107	=107	=107	=107	=107
2.G\	0r	2.B-\	1d	2G/	1g
.	.	.	.	2G/	.
4F\	.	4A/	.	.	.
2E\	.	2G/	1r	2.c\	1r
[2F\	.	[2A/	.	.	.
.	.	.	.	4B-\	.
=108	=108	=108	=108	=108	=108
2F\]	0r	2A/]	1r	2A/	0r
4E\	.	4G/	.	1d	.
4D\	.	4F/	.	.	.
1E	.	1G	2r	.	.
.	.	.	2c\	2c#i\	.
=109	=109	=109	=109	=109	=109
1D	0r	1A	2.f\	1d	2r
.	.	.	.	.	2f/
.	.	.	4e\	.	.
2.G\	.	1r	2d\	2r	2.b-\
.	.	.	[2g\	2G/	.
4F\	.	.	.	.	4a/
=110	=110	=110	=110	=110	=110
4E\	0r	0r	4g\]	2.c\	2g/
4D\	.	.	4f\	.	.
2C/	.	.	4e\	.	2.cc\
.	.	.	4d\	4B-\	.
2FF/	.	.	2c\	2A/	.
.	.	.	.	.	4b-\
[2F\	.	.	[2A/	2d\	4a/
.	.	.	.	.	4g/
=111	=111	=111	=111	=111	=111
4F\]	0r	2r	2A/]	4c\	2a/
4G\	.	.	.	4B-\	.
2E\	.	2B-\	2e\	4A/	1g
.	.	.	.	4G/	.
1D	.	[1d	4f\	1A	.
.	.	.	4e\	.	.
.	.	.	4d\	.	2f#i/
.	.	.	4c\	.	.
=112	=112	=112	=112	=112	=112
1GG	2r	1d]	1B-	0G	0g
.	2GG/	.	.	.	.
1r	1C	1c	2r	.	.
.	.	.	2G/	.	.
=113	=113	=113	=113	=113	=113
2r	2BB-/	1d	2.B-\	2r	0r
2.G\	2GG/	.	.	2B-\	.
.	.	.	4A/	.	.
.	1BB-	1B-	2G/	1d	.
4F\	.	.	.	.	.
2D\	.	.	2F/	.	.
=114	=114	=114	=114	=114	=114
1E	1AA	1c	1A	1c	0r
2D\	2r	1A	2r	1d	.
2F\	2D\	.	2A/	.	.
=115	=115	=115	=115	=115	=115
2G\	2GG/	1G	3.B-\V	1B-	0r
2.B-\	2.G\	.	6c\	.	.
.	.	.	3d\Z	.	.
.	.	2r	2G/	[1c	.
4A\	4E\	.	.	.	.
2A\	2F\	2A/	4c\	.	.
.	.	.	4d\	.	.
=116	=116	=116	=116	=116	=116
1G	2G\	2B-\	4e\	2c\]	0r
.	.	.	4f\	.	.
.	2GG/	2.d\	1g	2B-\	.
1r	1D	.	.	1A	.
.	.	4c\	.	.	.
.	.	2A/	2f#i\	.	.
=117	=117	=117	=117	=117	=117
2r	0GG	1B-	1g	1G	0r
2D\	.	.	.	.	.
2E\	.	1r	2r	2r	.
[2G\	.	.	[2d\	2G/	.
=118	=118	=118	=118	=118	=118
2G\]	0r	0r	4d\]	2A/	1r
.	.	.	4e\	.	.
2F\	.	.	2f\	1c	.
1G	.	.	2d\	.	2r
.	.	.	4g\	2B-\	2g/
.	.	.	4f\	.	.
=119	=119	=119	=119	=119	=119
2C/	0r	0r	4e\	1c	1cc
.	.	.	4d\	.	.
2.F\	.	.	2c\	.	.
.	.	.	2F/	2d\	2a/
4E\	.	.	.	.	.
4D\	.	.	[2B-\	[2f\	[2dd\
4C/	.	.	.	.	.
=120	=120	=120	=120	=120	=120
2BB-/	0r	0r	4B-\]	2f\]	2dd\]
.	.	.	4G/	.	.
2.F\	.	.	4A/	4e\	2cc\
.	.	.	4B-\	4d\	.
.	.	.	2.c\	2c\	2a/
4E\	.	.	.	.	.
2C/	.	.	.	[2e\	[2cc\
.	.	.	4B-\	.	.
=121	=121	=121	=121	=121	=121
1D	0r	0r	2A/	4e\]	4cc\]
.	.	.	.	4d\	4a/
.	.	.	2F/	1d	2b-\
1E	.	.	1G	.	4cc\
.	.	.	.	.	4b-\
.	.	.	.	2c#i\	4a/
.	.	.	.	.	4g/
=122	=122	=122	=122	=122	=122
[0D	0r	2r	1A	0d	0f
.	.	2A/	.	.	.
.	.	2F/	1r	.	.
.	.	[2B-\	.	.	.
=123	=123	=123	=123	=123	=123
1D]	2r	4B-\]	2r	0r	0r
.	.	4A/	.	.	.
.	2A\	2A/	2d\	.	.
1r	2F\	2D/	2B-\	.	.
.	[2B-\	[2G/	[2e-i\	.	.
=124	=124	=124	=124	=124	=124
0r	4B-\]	4G/]	4e-\]	0r	0r
.	4A\	4F/	4d\	.	.
.	2.A\	2D/	1d	.	.
.	.	1E-i	.	.	.
.	4G\	.	.	.	.
.	[2G\	.	2c\	.	.
=125	=125	=125	=125	=125	=125
2r	2G\]	2D/	1d	0r	0r
2D\	2F\	1d	.	.	.
2BB-/	1G	.	1r	.	.
[2E-i\	.	2B-\	.	.	.
=126	=126	=126	=126	=126	=126
4E-\]	2r	2G/	0r	2r	0r
4D\	.	.	.	.	.
1D	2F\	2.B-\	.	2d\	.
.	2D\	.	.	2B-\	.
.	.	4A/	.	.	.
2C/	[2G\	2c\	.	[2e-i\	.
=127	=127	=127	=127	=127	=127
1BB-	4G\]	2F/	0r	4e-\]	1r
.	4F\	.	.	4d\	.
.	2D\	2G/	.	1d	.
1AA	1E	[1A	.	.	2r
.	.	.	.	2c#i\	2a/
=128	=128	=128	=128	=128	=128
2r	1D	2A/]	2r	1d	2f/
2D\	.	2.d\	2d\	.	2.b-\
2G\	2r	.	[1d	2G/	.
.	.	4c\	.	.	4a/
2F\	2D\	2A/	.	2A/	[2a/
=129	=129	=129	=129	=129	=129
2D\	2BB-/	2d\	2d\]	2B-\	4a/]
.	.	.	.	.	4g/
2.G\	2.E-i\	2G/	4B-\	2G/	4g/
.	.	.	4c\	.	8f/L
.	.	.	.	.	8e/J
.	.	1d	4d\	2A/	2f/
4F\	4D\	.	4e\	.	.
2F\	2D\	.	[2f\	[2d\	[2a/
=130	=130	=130	=130	=130	=130
2.D\	2.BB-/	2r	4f\]	2d\]	4a/]
.	.	.	4e\	.	4g/
.	.	2.d\	4f\	4c\	1g
4E\	4C/	.	4e\	4B-\	.
1F	1D	.	1d	1A	.
.	.	4c\	.	.	.
.	.	2A/	.	.	2f#i/
=131	=131	=131	=131	=131	=131
1D	0GG	2B-\	1d	0G	0g
.	.	1d	.	.	.
2r	.	.	1r	.	.
2D\	.	4c\	.	.	.
.	.	4B-\	.	.	.
=132	=132	=132	=132	=132	=132
1F	0r	1A	0d	0r	0r
2G\	.	2.G/	.	.	.
[2B-\	.	.	.	.	.
.	.	4F/	.	.	.
=133	=133	=133	=133	=133	=133
4B-\]	2r	1D	1f	0r	0r
8A\L	.	.	.	.	.
8G\J	.	.	.	.	.
2A\	2D\	.	.	.	.
2G\	2E\	1r	1g	.	.
[2B-\	[2G\	.	.	.	.
=134	=134	=134	=134	=134	=134
4B-\]	4G\]	0r	2d\	0r	0r
4A\	4F\	.	.	.	.
2.F\	2.D\	.	2.f\	.	.
4G\	4E\	.	4e\	.	.
2A\	2F\	.	2c\	.	.
=135	=135	=135	=135	=135	=135
2B-\	4BB-/	0r	2.d\	0r	0r
.	4C/	.	.	.	.
4BB-/	4D\	.	.	.	.
4C/	4E\	.	4c\	.	.
4D\	4F\	.	2A/	.	.
4E\	4G\	.	.	.	.
4F\	[2A\	.	[2f\	.	.
4G\	.	.	.	.	.
=136	=136	=136	=136	=136	=136
4A\	4A\]	0r	4f\]	0r	2r
4B-\	4G\	.	4e\	.	.
1A	2F\	.	1d	.	2a/
.	1E	.	.	.	2b-\
2G\	.	.	2c#i\	.	2cc\
=137	=137	=137	=137	=137	=137
0A	1D	2r	1d	0r	1f
.	.	2A/	.	.	.
.	1r	1c	1r	.	1e
=138	=138	=138	=138	=138	=138
0r	0r	2G/	0r	2r	2d/
.	.	2.B-\	.	2d\	2.dd\
.	.	.	.	1f	.
.	.	4A/	.	.	4cc\
.	.	[2F/	.	.	[2a/
=139	=139	=139	=139	=139	=139
0r	0r	4F/]	0r	1c	4a/]
.	.	4G/	.	.	4b-\
.	.	4A/	.	.	4cc\
.	.	4F/	.	.	4a/
.	.	2G/	.	2r	2b-\
.	.	2F/	.	[2f\	2a/
=140	=140	=140	=140	=140	=140
0r	0r	2D/	0r	4f\]	2f/
.	.	.	.	4e\	.
.	.	1G	.	4d\	2.b-\
.	.	.	.	4c\	.
.	.	.	.	2d\	.
.	.	.	.	.	8a/L
.	.	.	.	.	8g/J
.	.	2F/	.	2A/	2a/
=141	=141	=141	=141	=141	=141
0r	0r	2G/	1r	2B-\	2d/
.	.	2C/	.	2c\	1g
.	.	1D	2r	1A	.
.	.	.	2F/	.	2f#i/
=142	=142	=142	=142	=142	=142
2r	2r	1G	1B-	1G	1g
2G\	2GG/	.	.	.	.
2F\	1D	1r	2.A/	1r	1r
2D\	.	.	.	.	.
.	.	.	4B-\	.	.
=143	=143	=143	=143	=143	=143
2E\	2C/	0r	4c\	0r	0r
.	.	.	4A/	.	.
2F\	2BB-/	.	1d	.	.
1G	1E	.	.	.	.
.	.	.	2c\	.	.
=144	=144	=144	=144	=144	=144
4GG/	2D\	0r	0d	2r	0r
4AA/	.	.	.	.	.
4BB-/	4GG/	.	.	2.d\	.
4C/	4AA/	.	.	.	.
4D\	4BB-/	.	.	.	.
4E\	4C/	.	.	4c\	.
[2F\	[2D\	.	.	2A/	.
=145	=145	=145	=145	=145	=145
4F\]	4D\]	0r	0r	2B-\	0r
4E\	4C/	.	.	.	.
2E\	2AA/	.	.	2c\	.
2D\	2BB-/	.	.	2F/	.
[2E\	2C/	.	.	[2A/	.
=146	=146	=146	=146	=146	=146
4E\]	1GG	2r	0r	4A/]	0r
4D\	.	.	.	4G/	.
1D	.	2.d\	.	1G	.
.	1AA	.	.	.	.
.	.	4c\	.	.	.
2C/	.	2A/	.	2F#i/	.
=147	=147	=147	=147	=147	=147
2D\	2GG/	2.B-\	0d	1G	2r
4GG/	2.G\	.	.	.	2.b-\
4AA/	.	4A/	.	.	.
4BB-/	.	2G/	.	1r	.
4C/	4F\	.	.	.	4a/
2D\	2D\	2F/	.	.	2f/
=148	=148	=148	=148	=148	=148
2C/	2E\	2c\	2G/	2r	2g/
1F	1D	2A/	1d	2d\	2a/
.	.	2F/	.	2B-\	2d/
2E\	2C/	2c\	[2e\	[2c\	[2a/
=149	=149	=149	=149	=149	=149
1C	1E	2r	2e\]	4c\]	4a/]
.	.	.	.	4B-\	4g/
.	.	2G/	2c\	2G/	1g
1F	1D	1d	2d\	1A	.
.	.	.	2A/	.	2f#i/
=150	=150	=150	=150	=150	=150
[0D	[0GG	1d	1B-	[0G	1.g
.	.	2r	1r	.	.
.	.	[2G/	.	.	2g/
=151	=151	=151	=151	=151	=151
0D]	1GG]	4G/]	0d	1G]	1b-
.	.	4A/	.	.	.
.	.	4B-\	.	.	.
.	.	4c\	.	.	.
.	1r	2d\	.	1r	2a/
.	.	2B-\	.	.	[2dd\
=152	=152	=152	=152	=152	=152
1r	0r	1A	1f	0r	4dd\]
.	.	.	.	.	4cc\
.	.	.	.	.	2a/
2r	.	2G/	1g	.	2.b-\
[2GG/	.	[2B-\	.	.	.
.	.	.	.	.	4cc\
=153	=153	=153	=153	=153	=153
4GG/]	2r	4B-\]	0d	1r	2dd\
4AA/	.	4A/	.	.	.
4BB-/	2.GG/	4G/	.	.	2g/
4C/	.	4F/	.	.	.
2D\	.	2G/	.	1d	1r
.	4AA/	.	.	.	.
2GG/	4BB-/	[2D/	.	.	.
.	4C/	.	.	.	.
=154	=154	=154	=154	=154	=154
2r	2D\	4D/]	2r	0f	0r
.	.	4E/	.	.	.
4D\	2BB-/	4F/	1d	.	.
4E\	.	4G/	.	.	.
4F\	1AA	2A/	.	.	.
4G\	.	.	.	.	.
2A\	.	2F/	2c\	.	.
=155	=155	=155	=155	=155	=155
2D\	0GG	2r	1d	1g	2r
4GG/	.	2B-\	.	.	2.b-\
4AA/	.	.	.	.	.
4BB-/	.	2G/	1d	1d	.
4C/	.	.	.	.	4a/
2D\	.	[2B-\	.	.	4g/
.	.	.	.	.	4f/
=156	=156	=156	=156	=156	=156
2GG/	0r	4B-\]	0r	0d	2g/
.	.	8A/L	.	.	.
.	.	8G/J	.	.	.
1D	.	2A/	.	.	1f
.	.	2D/	.	.	.
4C/	.	2A/	.	.	4e/
4BB-/	.	.	.	.	4d/
=157	=157	=157	=157	=157	=157
1AA	1r	2.A/	0r	1c	1e
.	.	4G/	.	.	.
[1D	2r	2F/	.	1d	1d
.	2D\	2E/	.	.	.
=158	=158	=158	=158	=158	=158
1D]	2.F\	1D	2r	0d	2r
.	.	.	2d\	.	2a/
.	4E\	.	.	.	.
1r	2.D\	1r	2.f\	.	2.b-\
.	4C/	.	4e\	.	4a/
=159	=159	=159	=159	=159	=159
0r	2BB-/	2r	2d\	0r	2g/
.	2AA/	2A/	2c\	.	2f/
.	1GG	2.d\	2B-\	.	2.g/
.	.	.	2A/	.	.
.	.	4c\	.	.	4a/
=160	=160	=160	=160	=160	=160
2r	0r	2B-\	2G/	0r	4b-\
.	.	.	.	.	4g/
2A\	.	2A/	2f\	.	2a/
2.B-\	.	2G/	2.g\	.	1d
.	.	4d\	.	.	.
4A\	.	4c\	4f\	.	.
=161	=161	=161	=161	=161	=161
2G\	0r	4B-\	2e\	1r	1r
.	.	4A/	.	.	.
2F\	.	1A	1d	.	.
1E	.	.	.	2r	2r
.	.	2G/	2c#i\	2e\	2g/
=162	=162	=162	=162	=162	=162
1D	0D	1A	1d	2.f\	2.dd\
.	.	.	.	4e\	4cc\
2r	.	2r	2r	2.d\	2b-\
2D\	.	2F/	2f\	.	[2a/
.	.	.	.	4c\	.
=163	=163	=163	=163	=163	=163
2G\	1E	2B-\	2e\	2B-\	4a/]
.	.	.	.	.	4g/
2E\	.	2c\	2c\	2G/	1g
2.F\	1D	1d	4f\	1A	.
.	.	.	4e\	.	.
.	.	.	4d\	.	2f#i/
4D\	.	.	4c\	.	.
=164	=164	=164	=164	=164	=164
*M3/1	*M3/1	*M3/1	*M3/1	*M3/1	*M3/1
*met(O/3)	*met(O/3)	*met(O/3)	*met(O/3)	*met(O/3)	*met(O/3)
0D	0.GG	0d	0B-	0.G	0.g
1r	.	1r	1G	.	.
=165	=165	=165	=165	=165	=165
0D	0.r	0A	0d	0.r	0.r
[1G	.	1B-	1d	.	.
=166	=166	=166	=166	=166	=166
1G]	1C	1G	1c	1r	0.r
1F	1.D	1.d	0A	1r	.
[1D	.	.	.	[1F	.
.	2E\	4c\	.	.	.
.	.	4B-\	.	.	.
=167	=167	=167	=167	=167	=167
2D\]	1F	1A	0.r	1F]	0.r
2E\	.	.	.	.	.
2F\	1.BB-	1.D	.	0B-	.
2D\	.	.	.	.	.
1G	.	.	.	.	.
.	2C/	2E/	.	.	.
=168	=168	=168	=168	=168	=168
1.F	1D	2F/	0.r	1.A	0.r
.	.	2D/	.	.	.
.	1D	2F/	.	.	.
2D\	.	2G/	.	2B-\	.
1E	1C	1A	.	1c	.
=169	=169	=169	=169	=169	=169
0F	1BB-	0B-	0.r	0d	0.r
.	0C	.	.	.	.
1E	.	1A	.	1c	.
=170	=170	=170	=170	=170	=170
0.F	0BB-	0B-	1.d	[0.d	0.r
.	.	.	2c\	.	.
.	1r	1r	1A	.	.
=171	=171	=171	=171	=171	=171
0.r	0.r	1.B-	2B-\	0.d]	1.dd
.	.	.	2c\	.	.
.	.	.	2d\	.	.
.	.	2A/	2e\	.	2cc\
.	.	1F	1f	.	1a
=172	=172	=172	=172	=172	=172
0.r	0.r	1G	1B-	0.r	1b-
.	.	1D	1d	.	1.a
.	.	1F	1c	.	.
.	.	.	.	.	2g/
=173	=173	=173	=173	=173	=173
1r	0.r	1G	1B-	1.d	0g
1r	.	0D	0A	.	.
.	.	.	.	2c\	.
1D	.	.	.	1A	1f#i
=174	=174	=174	=174	=174	=174
1GG	1.D	0.r	0.r	1B-	1g
1D	.	.	.	1.A	1r
.	2C/	.	.	.	.
1E	1AA	.	.	.	1r
.	.	.	.	2G/	.
=175	=175	=175	=175	=175	=175
1.D	1.BB-	0.r	1.d	0G	0.r
2E\	2C/	.	2c\	.	.
1F	1D	.	1A	1F	.
=176	=176	=176	=176	=176	=176
[0.D	0GG	1.d	1.B-	0G	0.r
.	.	2c\	2A/	.	.
.	1r	1A	1F	1r	.
=177	=177	=177	=177	=177	=177
0D]	2.BB-/	1.B-	1.F	1.d	0.r
.	4C/	.	.	.	.
.	2D\	.	.	.	.
.	2E\	2A/	2G/	2c\	.
1r	1F	1F	1A	1A	.
=178	=178	=178	=178	=178	=178
1.D	1.BB-	0F	2F/	0B-	1.dd
.	.	.	1f	.	.
2E\	2C/	.	2e\	.	2cc\
1F	1D	1F	2.d\	1A	1a
.	.	.	4c\	.	.
=179	=179	=179	=179	=179	=179
1BB-	1GG	0D	0d	0d	1b-
1F	1D	.	.	.	1.a
1G	1E	[1G	1G	1B-	.
.	.	.	.	.	2g/
=180	=180	=180	=180	=180	=180
1E	1C	1G]	1g	1c	1g
0F	0D	0d	2f\	0A	0f
.	.	.	2e\	.	.
.	.	.	2d\	.	.
.	.	.	2c\	.	.
=181	=181	=181	=181	=181	=181
*M2/1	*M2/1	*M2/1	*M2/1	*M2/1	*M2/1
*met(C|)	*met(C|)	*met(C|)	*met(C|)	*met(C|)	*met(C|)
0D	0GG	2.d\	1B-	1G	0g
.	.	4c\	.	.	.
.	.	4B-\	2r	2r	.
.	.	4A/	.	.	.
.	.	2d\	2d\	2B-\	.
=182	=182	=182	=182	=182	=182
1C	1r	2G/	2e\	2c\	1r
.	.	2c\	2.g\	2.e\	.
1D	2r	2B-\	.	.	2r
.	.	.	8f\L	8d\L	.
.	.	.	8e\J	8c\J	.
.	2D\	2A/	2f\	2d\	2f/
=183	=183	=183	=183	=183	=183
1GG	2E\	2G/	2e\	2B-\	2g/
.	2.G\	1d	2d\	2G/	2.b-\
1D	.	.	4f\	2.A/	.
.	8F\L	.	4e\	.	8a/L
.	8E\J	.	.	.	8g/J
.	2F\	2d\	4d\	.	2a/
.	.	.	4c\	8B-/L	.
.	.	.	.	8A/J	.
=184	=184	=184	=184	=184	=184
2r	2G\	2.d\	2B-\	2B-\	2d/
2F\	2D\	.	2f\	2A/	2a/
.	.	4c\	.	.	.
2G\	1r	2B-\	2e\	1G	2b-\
[2B-\	.	2G/	2d\	.	[2dd\
=185	=185	=185	=185	=185	=185
4B-\]	2r	1c	1e	1r	4dd\]
8A\L	.	.	.	.	8cc\L
8G\J	.	.	.	.	8b-\J
2.A\	2AA/	.	.	.	2cc\
.	2.D\	2.A/	1d	2r	2.f/
4D\	.	.	.	.	.
2D\	.	.	.	2d\	.
.	4C/	4B-\	.	.	4g/
=186	=186	=186	=186	=186	=186
2r	2AA/	2c\	0r	2c\	2a/
2.D\	2.BB-/	2d\	.	2.f\	2.dd\
.	.	1D	.	.	.
4E\	4C/	.	.	4e\	4cc\
2F\	2D\	.	.	4d\	4b-\
.	.	.	.	4c\	4a/
=187	=187	=187	=187	=187	=187
2BB-/	2GG/	2G/	1r	1d	2b-\
2F\	2D\	2F/	.	.	2.a/
1E	2E\	1G	2r	2B-\	.
.	.	.	.	.	4g/
.	2C/	.	2c\	2c\	2g/
=188	=188	=188	=188	=188	=188
2D\	1D	2r	2.f\	1A	2f/
2.F\	.	2d\	.	.	4d/
.	.	.	4e\	.	4e/
.	2r	2A/	4d\	2.d\	4f/
4E\	.	.	4c\	.	4g/
2D\	2D\	[2d\	2f\	.	[2a/
.	.	.	.	4c\	.
=189	=189	=189	=189	=189	=189
2G\	1E	4d\]	2g\	2B-\	4a/]
.	.	4B-\	.	.	4g/
2C/	.	2c\	2e\	2G/	1g
2.F\	1D	1d	4f\	1A	.
.	.	.	4e\	.	.
.	.	.	4d\	.	2f#i/
4E\	.	.	4c\	.	.
=190	=190	=190	=190	=190	=190
2D\	2GG/	0d	1B-	[0Gl	[0gl
2.G\	1G	.	.	.	.
.	.	.	2r	.	.
4F\	.	.	.	.	.
4E-i\	2F\	.	2B-\	.	.
4D\	.	.	.	.	.
=191	=191	=191	=191	=191	=191
2C/	2E-i\	2r	2c\	0G_	0g_
2D\	2D\	2d\	2B-\	.	.
1E-i	2.C/	2.G/	1c	.	.
.	4BB-/	4A/	.	.	.
=192	=192	=192	=192	=192	=192
0Dl	0GGl	0B-l	0dl	0G]	0g]
==	==	==	==	==	==
*-	*-	*-	*-	*-	*-
!!!RDF**kern: l=long note in original notation
!!!RDF**kern: i=editorial accidental
!!!ENC:	Will Watson 10/09/2011
!!!END:	2011/04/30/
!!!EED:	Jesse Rodin
!!!EEV:	2011/10/18/
!!attribution-level@Jos: 5 (doubtful)
!!!ONB:	Translated from MusicXML and edited on 2011/10/18/ by Craig Sapp
!!muse2ps: u^(2) @{OTL2}^C^@{COA}?\n@{SCT}^v96,96,96,96,96,130i2I150c80Q16
